X:1
T:Resting By and By
T:Robert Lowry
T:Resting By and By
T:Public Domain
T:Public Domain
T:Public Domain
C:Robert Lowry
Z:Public Domain
%%score ( 1 2 ) ( 3 4 )
L:1/8
M:4/4
K:Eb
V:1 treble 
V:2 treble 
V:3 bass 
V:4 bass 
V:1
 E2 | [EG]2 [EG]2 [EG]2 [FA]2 | [GB]2 [GB]4 [GB]2 | [Ac]2 [ce]2 [ce]2 [Ac]2 | [GB]6 [GB]2 | %5
w: 1.~When|and wear- y toil-|ing, The sweat-|drops on my brow,|I long|
w: 2.~This|to toil is giv-|en, And he|im- proves it best|Who seeks|
w: 3.~Nor|when o- ver- bur-|dened, You long|for friend- ly aid,|“Why i-|
w: 4.~Wan|er in the har-|vest, Let this|thy strength sus- tain,|Each sheaf|
 [EG]2 [EG]2 [EG]2 [FA]2 | [GB]2 [GB]4 [GB]2 | [Ec]2 [EB]2 [EB]2 [EG]2 | [DF]6 E2 | %9
w: to rest for la-|bor, To drop|the bur- den now—|There comes|
w: by pa- tient la-|bor To en-|ter in- to rest;|Then pil-|
w: dle stands my bro-|ther, No yoke|up- on him laid?”|The Mas-|
w: that fills the gar-|ner Brings you|e- ter- nal gain;|Then bear|
 [EG]2 [EG]2 [EG]2 [FA]2 | [GB]2 [GB]4 [GB]2 | [Ac]2 [ce]2 [ce]2 [Ac]2 | [GB]6 [GB]2 | %13
w: gen- tle chid- ing,|To quell each|mourn- ing sigh: “Work|while the|
w: worn and wear- y,|Press on, the|goal is nigh; The|prize is|
w: bids him tar- ry;|And dare you|ask him why? “Go|la- bor|
w: cross with pa- tience,|To fields of|du- ty hie; ’Tis|sweet to|
 [Ge]2 [GB]2 [GB]2 [EG]2 | [FA]2 [Ac]4 [Ac]2 | [GB]2 [EG]2 [EG]3 [DF] | E8 || %17
w: day is shin- ing,|There’s rest- ing|by and by.” *||
w: straight be- fore thee,|There’s rest- ing|by and by. Rest-|ing|
w: in my vine- yard,|There’s rest- ing|by and by.” *||
w: work for Je- sus—|There’s rest- ing|by and by. *||
"^Refrain" [EG]2 [GB]2 [Ge]3 [Af] | [Ge]6 [Bd]2 | [Ac]2 [GB]2 [ce]3 [Ac] | [GB]6 [GB]2 | %21
w: ||||
w: and by, There’s rest-|ing by|and by; We shall|not al-|
w: ||||
w: ||||
 [EG]2 [GB]2 [GB]2 [GB]2 | [Ac]2 [GB]4 [EB]2 | [Ec]2 [EB]2 [EB]2 [EG]2 | [DF]6 E2 | %25
w: ||||
w: ways la- bor, We|shall not al-|ways cry; The end|is draw-|
w: ||||
w: ||||
 [EG]2 [EG]2 [EG]2 [FA]2 | [GB]2 [GB]4 [GB]2 | [Ac]2 [GB]2 [Ac]2 [Ad]2 | [Ae]6 [Ad]2 | %29
w: ||||
w: near- er, The end|for which we|sigh; We’ll lay our|hea- vy|
w: ||||
w: ||||
 [Ac]2 [GB]2 [ce]2 [Ac]2 | [GB]2 [EG]2 [GB]2 [Ac]2 | [GB]2 [EG]2 [EG]3 [DF] | E8 |] %33
w: ||||
w: bur- dens down, There’s|rest- ing by and|by. * * *||
w: ||||
w: ||||
V:2
 E2 | x8 | x8 | x8 | x8 | x8 | x8 | x8 | x6 E2 | x8 | x8 | x8 | x8 | x8 | x8 | x8 | E8 || x8 | x8 | %19
w: faint||||||||a|||||||||||
w: life||||||||grim,||||||||by|||
w: ask||||||||ter|||||||||||
w: reap-||||||||the|||||||||||
 x8 | x8 | x8 | x8 | x8 | x6 E2 | x8 | x8 | x8 | x8 | x8 | x8 | x8 | E8 |] %33
w: ||||||||||||||
w: |||||ing|||||||||
w: ||||||||||||||
w: ||||||||||||||
V:3
 E,2 | E,2 E,2 E,2 E,2 | E,2 E,4 E,2 | A,2 A,2 A,2 A,2 | E,6 E,2 | E,2 E,2 E,2 E,2 | E,2 E,4 E,2 | %7
 A,2 G,2 G,2 E,2 | B,,6 E,2 | E,2 E,2 E,2 E,2 | E,2 E,4 E,2 | A,2 A,2 A,2 A,2 | E,6 E,2 | %13
 E,2 E,2 E,2 E,2 | A,,2 A,,4 A,,2 | B,,2 B,,2 B,,3 B,, | E,8 || [E,B,]2 [E,B,]2 [E,B,]3 [E,B,] | %18
 [E,B,]6 [G,B,]2 | [A,E]2 [E,E]2 [A,,E]3 [C,E] | [E,E]6 [E,E]2 | [E,B,]2 [E,E]2 [E,E]2 [E,E]2 | %22
 [E,E]2 [E,E]4 [G,E]2 | [A,E]2 [G,E]2 [G,E]2 [E,B,]2 | [B,,B,]6 [E,G,]2 | %25
 [E,B,]2 [E,B,]2 [E,B,]2 [E,B,]2 | [E,E]2 [E,E]4 [E,E]2 | [A,E]2 [E,E]2 [A,E]2 [A,D]2 | %28
 [A,C]6 [A,E]2 | [A,E]2 [E,E]2 [A,,E]2 [C,E]2 | [E,E]2 [E,B,]2 [E,E]2 [A,,E]2 | %31
 [B,,E]2 [B,,B,]2 [B,,B,]3 [B,,A,] | [E,G,]8 |] %33
V:4
 x2 | x8 | x8 | x8 | x8 | x8 | x8 | x8 | x8 | x8 | x8 | x8 | x8 | x8 | x8 | x8 | E,8 || x8 | x8 | %19
 x8 | x8 | x8 | x8 | x8 | x8 | x8 | x8 | x8 | x8 | x8 | x8 | x8 | x8 |] %33

